src/images/sidepanel/combat.svg

<svg xmlns="http://www.w3.org/2000/svg" viewBox="0 0 512 512" style="height: 512px; width: 512px;"><g class="" transform="translate(0,0)" style=""><path d="M66.54 18.002c-.327-.007-.655-.005-.98.006-4.064.136-8.105 1.634-11.39 4.535-7.508 6.632-8.218 18.094-1.586 25.602 4.394 4.974 10.906 6.945 16.986 5.792l57.838 65.475-50.373 44.498 24.188 27.38c9.69-21.368 22.255-39.484 37.427-54.65l6.91 36.188c25.092-6.29 49.834-10.563 74.366-12.873l-23.912-27.07-38.66-12.483c17.117-12.9 36.734-22.97 58.62-30.474l-24.19-27.385-50.37 44.496-57.92-65.57c1.79-5.835.617-12.43-3.72-17.34-3.498-3.96-8.34-6.03-13.235-6.128zm384.397 0c-4.895.1-9.735 2.168-13.232 6.127-4.338 4.91-5.514 11.506-3.723 17.343l-57.92 65.568-50.37-44.497-24.188 27.385c21.884 7.504 41.5 17.573 58.62 30.472l-38.66 12.485-23.255 26.324c24.71 1.863 49.367 5.706 74.118 11.46l6.498-34.03c15.173 15.166 27.74 33.282 37.43 54.65l24.185-27.38-50.372-44.498 57.838-65.475c6.08 1.153 12.593-.818 16.987-5.792 6.63-7.508 5.92-18.97-1.586-25.602-3.285-2.9-7.326-4.4-11.39-4.535-.326-.01-.653-.013-.98-.006zm-186.425 158.51c-39.56-.098-79.467 5.226-120.633 16.095-2.046 90.448 34.484 209.35 118.47 259.905 81.295-49.13 122.402-169.902 120.552-259.914-39.75-10.496-78.91-15.988-118.39-16.086zm-117.176 153.5L60.47 428.35l-12.2 63.894 61.9-19.994 68.49-77.535c-12.86-20.108-23.246-42.03-31.324-64.703zm228.203 6.11c-8.69 22.238-19.577 43.634-32.706 63.142l64.473 72.986 61.898 19.994-12.2-63.894-81.466-92.23z" fill="#ffffff" fill-opacity="1"></path></g></svg>

<svg xmlns="http://www.w3.org/2000/svg" viewBox="0 0 512 512" style="height: 512px; width: 512px;"><g class="" transform="translate(0,0)" style=""><g><path d="M66.54 18.002C66.213 17.995 65.885 17.997 65.56 18.008C61.496 18.144 57.455 19.642 54.17 22.543C46.662 29.175 45.952 40.637 52.584 48.145C56.978 53.119 63.49 55.09 69.57 53.937L127.408 119.412L77.035 163.91L101.223 191.29C110.913 169.922 123.478 151.806 138.65 136.64L145.56 172.828C170.652 166.538 195.394 162.265 219.926 159.955L196.014 132.885L157.354 120.402C174.471 107.502 194.088 97.432 215.974 89.928L191.784 62.543L141.414 107.039L83.494 41.469C85.284 35.634 84.111 29.039 79.774 24.129C76.276 20.169 71.434 18.099 66.539 18.001Z" class="" fill="#c9c9c9" fill-opacity="1"></path><path d="M450.937 18.002C446.042 18.102 441.202 20.17 437.705 24.129C433.367 29.039 432.191 35.635 433.982 41.472L376.062 107.04L325.692 62.543L301.504 89.928C323.388 97.432 343.004 107.501 360.124 120.4L321.464 132.885L298.209 159.209C322.919 161.072 347.576 164.915 372.327 170.669L378.825 136.639C393.998 151.805 406.565 169.921 416.255 191.289L440.44 163.909L390.068 119.411L447.906 53.936C453.986 55.089 460.499 53.118 464.893 48.144C471.523 40.636 470.813 29.174 463.307 22.542C460.022 19.642 455.981 18.142 451.917 18.007C451.591 17.997 451.264 17.994 450.937 18.001Z" class="selected" fill="#c9c9c9" fill-opacity="1"></path><path d="M264.512 176.512C224.952 176.414 185.045 181.738 143.879 192.607C141.833 283.055 178.363 401.957 262.349 452.512C343.644 403.382 384.751 282.61 382.901 192.598C343.151 182.102 303.991 176.61 264.511 176.512Z" class="" fill="#5b21b6" fill-opacity="1"></path><path d="M147.336 330.012L60.47 428.35L48.27 492.244L110.17 472.25L178.66 394.715C165.8 374.607 155.414 352.685 147.336 330.012Z" class="" fill="#c9c9c9" fill-opacity="1"></path><path d="M375.539 336.122C366.849 358.36 355.962 379.756 342.833 399.264L407.306 472.25L469.204 492.244L457.004 428.35L375.538 336.12Z" class="" fill="#c9c9c9" fill-opacity="1"></path></g></g></svg>
